X: 68
T: Arkansas Traveller
M: 4/4
K: D
L: 1/8
B,C | "D" DFED "G" B,2 B,2 | "D" A,2 A,2 D4 | "A" E2 E2 "(F#m)" F2 F2 | "A" DFED "G" B,2 "A" A,2 |
"D" DFED "G" B,2 B,2 | "D" A,2 A,2 D4 | dcdB "G" BdAG |1 "D" FDEF D2 B,C :|2 "D" FDEF D2 fg ||
"D" agfa "G" gfeg | "D" fedf "A" edcA | "D" dcdf "A" edeg | "D" fedf "A" e2 fg |
"D" agfa "G" gfeg | "D" fedf "A" edcA | "D" dcdA "G" BdAG |1 "D" FDEF D2 fg :|2 "D" FDEF  D2 |]

